packages/core/src/svgs/tokens/branded/ASTRAFER.svg

<svg width="24" height="24" viewBox="0 0 24 24" fill="none" xmlns="http://www.w3.org/2000/svg">
<path d="M3.6665 7.00001L11.9999 2V6.16668L6.99984 8.66668L3.6665 7.00001Z" fill="#D60362"/>
<path d="M20.3335 7.00001L12.0002 2V6.16668L17.0002 8.66668L20.3335 7.00001Z" fill="url(#paint0_linear_364_13060)"/>
<path d="M6.99984 8.66672L3.6665 7.00006V17.0001L6.99984 15.3335V8.66672Z" fill="#F50E6A"/>
<path d="M17 8.66672L20.3333 7.00006V17.0001L17 15.3335V8.66672Z" fill="url(#paint1_linear_364_13060)"/>
<path d="M6.99984 15.3334L3.6665 17.0001L11.9999 22V18.2501L6.99984 15.3334Z" fill="url(#paint2_linear_364_13060)"/>
<path d="M17.0002 15.3334L20.3335 17.0001L12.0002 22V18.2501L17.0002 15.3334Z" fill="url(#paint3_linear_364_13060)"/>
<path d="M12.0001 6.16666L7 8.66666V15.3334L12.0001 18.2501L17 15.3334V8.66666L12.0001 6.16666Z" fill="url(#paint4_linear_364_13060)"/>
<path d="M11.1054 9.48335L9.72752 7.41669C9.72752 7.60001 9.77199 8.08891 9.93869 8.61112C10.1053 9.13335 10.3609 9.69996 10.472 9.9167C10.3276 10.0944 10.0275 10.5445 9.93869 10.8945C9.83304 11.3279 10.1497 11.2222 10.3609 11.4389C10.5275 11.6111 10.5775 11.8 10.5775 11.8723C10.3998 12.0889 10.0219 12.5889 9.93869 12.85C9.83304 13.1778 9.83304 13.5001 10.1497 13.5001C10.472 13.5001 10.2608 13.2833 10.2608 13.0667C10.2608 12.8445 10.7887 12.6334 10.8942 12.4167C10.9775 12.2389 10.9997 11.9778 10.9997 11.8723C11.172 11.9834 11.4831 12.2389 11.3164 12.4167C11.1054 12.6334 10.683 13.0667 10.683 13.2833C10.683 13.4556 10.6108 13.9389 10.5719 14.1556C10.472 14.1556 10.2552 14.1945 10.2552 14.3722C10.2552 14.5889 10.472 15.35 10.2552 15.6723C10.0442 16.0055 9.83304 16.1112 9.83304 16.3278C9.83304 16.5444 9.51636 16.5444 9.51636 16.8722C9.51636 17.1945 10.0442 16.7612 10.472 16.7612C10.8942 16.7612 10.8942 16.7612 11.1054 16.6501C11.2719 16.5667 11.033 16.4 10.8942 16.3278C10.9997 16.2556 11.2498 16.0444 11.4219 15.7834C11.6331 15.4555 11.3108 14.8056 11.3108 14.3722C11.3108 14.0222 11.4554 13.8611 11.5276 13.8278C11.5609 13.9723 11.6552 14.2834 11.7386 14.3722C11.822 14.4556 11.9831 13.9 12.0553 13.6111L12.1608 14.1556C12.272 14.8056 13.0053 15.4555 13.0053 16.4889C13.0053 17.5222 13.0053 17.4111 13.472 17.4111C13.9331 17.4111 13.8553 17.3 13.8553 16.6501C13.8553 16 13.1109 14.6945 13.1109 14.2611C13.1109 13.9167 13.2553 14.0445 13.322 14.15C13.2117 13.624 13.0344 13.1143 12.7942 12.6334C12.4775 12.0889 12.6887 11.9778 13.0053 11.8723C13.322 11.7611 13.5331 12.5223 13.472 12.85C13.4053 13.1778 13.5331 13.3944 13.7498 13.5001C13.9608 13.6111 13.9608 13.0667 14.0664 12.85C14.172 12.6278 13.9553 12.4167 14.0664 12.2C14.172 11.9778 13.6386 11.6556 13.5331 11.3278C13.4275 11 14.4887 10.3501 14.4887 9.86109C14.4887 9.37224 14.8053 9.15558 15.1219 8.8278C15.3776 8.56668 15.3664 8.36113 15.3331 8.28335L14.4887 7.63335L13.8553 8.8278L13.1109 9.26669L13.0053 9.15557L12.7942 9.37779L13.0053 9.69996L12.2665 10.3501L11.3164 9.69996L11.6331 9.47777L11.522 9.26112L11.1054 9.48335Z" fill="url(#paint5_linear_364_13060)"/>
<defs>
<linearGradient id="paint0_linear_364_13060" x1="4.50019" y1="4.50001" x2="19.7566" y2="13.218" gradientUnits="userSpaceOnUse">
<stop stop-color="#FF78AB"/>
<stop offset="1" stop-color="#FFCEE0"/>
</linearGradient>
<linearGradient id="paint1_linear_364_13060" x1="12.0001" y1="2.00005" x2="12.0001" y2="22.0001" gradientUnits="userSpaceOnUse">
<stop stop-color="#BE0E53"/>
<stop offset="1" stop-color="#C70455"/>
</linearGradient>
<linearGradient id="paint2_linear_364_13060" x1="6.99984" y1="5.75001" x2="22.388" y2="11.5206" gradientUnits="userSpaceOnUse">
<stop stop-color="#FB4C70"/>
<stop offset="1" stop-color="#FC2585"/>
</linearGradient>
<linearGradient id="paint3_linear_364_13060" x1="17.0002" y1="5.75001" x2="1.61205" y2="11.5206" gradientUnits="userSpaceOnUse">
<stop stop-color="#E31167"/>
<stop offset="1" stop-color="#FB27A8"/>
</linearGradient>
<linearGradient id="paint4_linear_364_13060" x1="16.8612" y1="4.06895" x2="6.54261" y2="19.3078" gradientUnits="userSpaceOnUse">
<stop stop-color="#BB0E53"/>
<stop offset="0.55" stop-color="#83012F"/>
<stop offset="1" stop-color="#D90838"/>
</linearGradient>
<linearGradient id="paint5_linear_364_13060" x1="14.1168" y1="8.03353" x2="7.95017" y2="14.2947" gradientUnits="userSpaceOnUse">
<stop stop-color="#FE64D4"/>
<stop offset="0.26" stop-color="#F9328D"/>
<stop offset="0.65" stop-color="#F7265F"/>
<stop offset="1" stop-color="#F32D6B"/>
</linearGradient>
</defs>
</svg>

<svg xmlns="http://www.w3.org/2000/svg" width="24" height="24" fill="none" viewBox="0 0 24 24">
    <path fill="#D60362" d="M3.667 7 12 2v4.167l-5 2.5z"/>
    <path fill="url(#ASTRAFER__a)" d="M20.334 7 12 2v4.167l5 2.5z"/>
    <path fill="#F50E6A" d="M7 8.667 3.667 7v10L7 15.334z"/>
    <path fill="url(#ASTRAFER__b)" d="M17 8.667 20.333 7v10L17 15.334z"/>
    <path fill="url(#ASTRAFER__c)" d="M7 15.333 3.667 17 12 22v-3.75z"/>
    <path fill="url(#ASTRAFER__d)" d="M17 15.333 20.334 17 12 22v-3.75z"/>
    <path fill="url(#ASTRAFER__e)" d="m12 6.167-5 2.5v6.666l5 2.917 5-2.917V8.667z"/>
    <path fill="url(#ASTRAFER__f)" d="M11.105 9.483 9.728 7.417c0 .183.044.672.21 1.194.167.522.423 1.089.534 1.306-.144.177-.444.627-.533.978-.106.433.21.327.422.544.166.172.216.361.216.433-.177.217-.555.717-.638.978-.106.328-.106.65.21.65.323 0 .112-.217.112-.433 0-.223.528-.434.633-.65a1.5 1.5 0 0 0 .106-.545c.172.111.483.367.316.545-.21.216-.633.65-.633.866 0 .173-.072.656-.111.873-.1 0-.317.038-.317.216 0 .217.217.978 0 1.3-.21.334-.422.44-.422.656s-.317.216-.317.544c0 .323.528-.11.956-.11.422 0 .422 0 .633-.112.167-.083-.072-.25-.21-.322.105-.072.355-.284.527-.545.211-.327-.111-.977-.111-1.41 0-.35.144-.512.217-.545.033.144.127.455.21.544.084.084.245-.472.317-.76l.106.544c.111.65.844 1.3.844 2.333s0 .922.467.922c.461 0 .383-.111.383-.76 0-.651-.744-1.957-.744-2.39 0-.344.144-.216.211-.111a6.3 6.3 0 0 0-.528-1.517c-.317-.544-.105-.655.211-.76.317-.112.528.65.467.977-.067.328.061.544.278.65.21.111.21-.433.316-.65.106-.222-.11-.433 0-.65.106-.222-.427-.544-.533-.872-.105-.328.956-.978.956-1.467s.316-.705.633-1.033c.256-.261.244-.467.211-.545l-.844-.65-.634 1.195-.744.439-.106-.111-.21.222.21.322-.739.65-.95-.65.317-.222-.111-.217z"/>
    <defs>
        <linearGradient id="ASTRAFER__a" x1="4.5" x2="19.757" y1="4.5" y2="13.218" gradientUnits="userSpaceOnUse">
            <stop stop-color="#FF78AB"/>
            <stop offset="1" stop-color="#FFCEE0"/>
        </linearGradient>
        <linearGradient id="ASTRAFER__b" x1="12" x2="12" y1="2" y2="22" gradientUnits="userSpaceOnUse">
            <stop stop-color="#BE0E53"/>
            <stop offset="1" stop-color="#C70455"/>
        </linearGradient>
        <linearGradient id="ASTRAFER__c" x1="7" x2="22.388" y1="5.75" y2="11.521" gradientUnits="userSpaceOnUse">
            <stop stop-color="#FB4C70"/>
            <stop offset="1" stop-color="#FC2585"/>
        </linearGradient>
        <linearGradient id="ASTRAFER__d" x1="17" x2="1.612" y1="5.75" y2="11.521" gradientUnits="userSpaceOnUse">
            <stop stop-color="#E31167"/>
            <stop offset="1" stop-color="#FB27A8"/>
        </linearGradient>
        <linearGradient id="ASTRAFER__e" x1="16.861" x2="6.543" y1="4.069" y2="19.308" gradientUnits="userSpaceOnUse">
            <stop stop-color="#BB0E53"/>
            <stop offset=".55" stop-color="#83012F"/>
            <stop offset="1" stop-color="#D90838"/>
        </linearGradient>
        <linearGradient id="ASTRAFER__f" x1="14.117" x2="7.95" y1="8.034" y2="14.295" gradientUnits="userSpaceOnUse">
            <stop stop-color="#FE64D4"/>
            <stop offset=".26" stop-color="#F9328D"/>
            <stop offset=".65" stop-color="#F7265F"/>
            <stop offset="1" stop-color="#F32D6B"/>
        </linearGradient>
    </defs>
</svg>
